X:1
T:Title
%%score ( 1 2 ) { 3 | 4 }
L:1/8
Q:1/4=108
M:4/4
K:Ab
V:1 treble nm="Grand Piano, Soprano"
V:2 treble 
V:3 bass nm="Choir Pad, O Hasten Thine Appearing"
V:4 bass 
V:1
 [CE][B,D] [A,C]2 [B,D]2 [CE]2 | [EA]2 [Ac]4 [Ac]2 | [Ac]2 [Ac]2 [EA]2 [CE]2 | z2 G6 | %4
w: By~Owen~F.~Pugh * * * *||||
 E2 [EBd]2 [EAc]2 [EGB]2 | z2 [Ac]4 z2 | [FAc]2 [FAc]2 [=EGc]2 [FA]2 | z2 c4 z2 | %8
w: ||||
 [Ac]2 [=Acf]2 [Ace]2 [Ad]2 | [F=Ac]2 [FBd]4 [FBd]2 | [FBd]2 [EBd]2 [EGB]2 [EG]2 | z2 e6 | %12
w: ||||
 [Ae]2 [GB=e]2 [GBe]2 [GBe]2 | [GB=e]2 [Af]4 [Ac]2 | [Ac]2 [Fc]2 [=EG]2 [FA]2 | [=DF]2 E4 z2 | %16
w: ||||
 z2 c6 | [EA]2 [DE]2 [DE]2 z2 | E2 [Bd]2 [Ac]2 [GB]2 | z2 B6 | [Ec]2 [Af]2 [Ae]2 [Gd]2 | %21
w: |||||
 [Ac]2 [Ae]4 [Ae]2 | [Ae]2 [Ad]2 .[Ad]2 z2 | [Ad]2 [Ac]2 .[Ac]2 z2 | z2 [GB]4 [GBe]2- | %25
w: ||||
 [GBe]2 A6- | A2 z2 z4 |] %27
w: ||
V:2
 x8 | x8 | x8 | [CEA]2 E2 E2 E2 | x8 | [EA]2 E2 F2 [FAc]2 | x8 | [FB]2 =E2 F2 [Ge]2 | x8 | x8 | %10
 x8 | E2 A2 A2 A2 | x8 | x8 | x8 | x8 | E2 E2 E2 E2 | x8 | x8 | [FA]2 E2 =D2 E2 | x8 | x8 | x8 | %23
 x8 | x8 | x8 | x8 |] %27
V:3
 z2 A,2 A,2 A,2 | A,2 A,2 A,2 A,2 | A,2 A,2 A,2 A,2 | A,2 B,2 E,2 B,2 | E,2 G,2 A,2 B,2 | %5
 C2 A,4 A,2 | A,2 F,2 C2 C2 | A,2 G,2 A,2 B,2 | z2 F,2 F,2 F,2 | F,2 B,4 B,2 | %10
 B,2 G,2 B,2[K:treble] E2 | D2 C2 C2 C2 | C2 C2 C2 C2 | C2 C4[K:bass] A,2 | A,2 A,2 B,2 B,2 | %15
 A,2 G,4 z2 | E,2 A,2 A,2 A,2 | A,2 G,2 G,2 z2 | E,2 D2 C2 B,2 | A,2 G,2 F,2 G,2 | %20
 A,2[K:treble] D2 C2 E2 | E2 C4 D2 | E2 F2 F2 z2 | F2 E2 E2 E2 | C2 E4 D2- | D2 C6- | C2 z2 z4 |] %27
V:4
 z2 [A,,E,]2 [A,,E,]2 [A,,E,]2 | [A,,C,E,]2 [A,,E,]2 [C,E,]2 E,2 | z2 [A,,E,]2 [C,E,]2 E,2 | %3
 A,,2 E,2 E,,2 E,2 | z2 [E,,E,]4 [E,,E,]2- | [E,,E,]2 A,,2 C,2 F,2 | F,2 [F,,C,]2 [C,G,]2 [F,A,]2 | %7
 [D,F,]2 C,4 B,,2 | z2 F,,2 F,,2 F,,2 | F,,2 B,,4 B,,2 | B,,2 E,4 E,2- | E,2 A,,2 C,2 E,2 | %12
 A,2 C,2 =E,2 G,2 | z2 F,4 F,2 | F,2 C,2 C,2 B,,2 | B,,2 E,4 z2 | z2 A,,2 z2 E,2 | %17
 C,2 B,,2 B,,2 z2 | z2 B,2 A,2 G,2 | F,2 E,2 B,,2 E,2 | z2 A,2 E,2 B,2 | A,2 A,4 B,2 | %22
 C2 D2 D2 z2 | D2 A,2 A,2 C2 | A,2 E,4 E,2- | E,2 [A,,A,]6- | [A,,A,]2 z2 z4 |] %27

